X: 24035
T: London Lasses, The
R: reel
M: 4/4
K: Gmajor
|:G2BG AGBd|gedB AGEF|G2BG AGBd|gedB AcBA|
G2BG AGBd|gedB dega|bgag egge|1 dBAB GDEF:|2 dBAB G2 (3ggg||
|:g2bg agba|gedB defa|g2bg agea|gedB BAAf|
g2bg agba|gedB dega|bgag egge|1 dBAB G2 (3ggg:|2 dBAB GDEF||

